!!!COM: Charles Gounod
!!!CNT: Francais
!!!TXO: Francais
!!!OTL: "A la Madone (Romance)"
!!!LYR: Barbier
!!!OPR: 
!!!OPS: Op. 
!!!ONM: No.
!!!ENC: Emily Thomas
!!!YOR: CD Sheet Music French Art Songs, The Ultimate Collection
!!!YOR: CD Sheet Music, LLC 2003
!!!ODT: 1874/
!!NB: Vocal melody and text encoded.
**kern	**silbe
=1	=1
*clefG2	*
*k[b-]	*
*M3/4	*
*MM[Moderato]	*
2.r	.
=2	=2
2.r	.
=3	=3
2.r	.
=4	=4
2.r	.
=5	=5
2.r	.
=6	=6
{4cc	{Blan-
4.cc	-che
8dd	ma-
=7	=7
4cc	-do-
4bn}	-ne,}
4r	.
=8	=8
{4b-	{No-
4.b-	-tre
8cc	pa-
=9	=9
4b-	-tron-
4a}	-ne,}
8r	.
{8cc	{Char-
=10	=10
4ee-	-man-
8dd	-te
8cc#	rei-
8dd	-ne
8a	des
=11	=11
[4b-	cieux,
8b-]}	|}
8r	.
4r	.
=12	=12
{4dd	{Je
4.dd	veux
8een	de
=13	=13
4dd	ro-
4cc#}	-ses,}
4r	.
=14	=14
{2a	{Frai-
8ee	-ches
8gg	e/-
=15	=15
4gg	-clo-
8ff}	-ses,}
8r	.
{8a	{Or
8bn	|
=16	=16
8ccn	-ner
8dd	ton
4eeS	front
8ff	gra-
8bn	-ci-
=17	=17
[4cc	-eux!
8cc]}	|}
8r	.
4r	.
=18	=18
{4cc	{Et
4.a	pour
8f	la
=19	=19
4a	fe\-
4g}	-le}
4r	.
=20	=20
{2ee-	{Que
8cc	l'ou
8a	ap-
=21	=21
4cc	-pre\-
8b-}	-te,}
8r	.
{8dd	{O
8ff	ma-
=22	=22
4a	-do-
8a	-ne,
8a	je
8bn	veux
8e	en-
=23	=23
[2cc	-cor
8cc]}	|}
8r	.
=24	=24
{2cc	{Pa-
8gg	-rer
8ff	ta
=25	=25
8ee	gra\-
8dd	|
8cc	-ce
8b-	Que
8a	rien
8g	n'ef-
=26	=26
8f	-fa-
8g	-ce
8a	D'un
8dd	man-
[4cc	-teau
=27	=27
8cc]	|
8d	d'ar-
4.b-	-gent
8e	et
=28	=28
4f}	d'or!}
4r	.
4r	.
=29	=29
2.r	.
=30	=30
{4cc	{Sain-
4.cc	-te
8dd	Ma-
=31	=31
4cc	-ri-
4bn}	-e,}
4r	.
=32	=32
{4b-	{Vier-
4.b-	-ge
8cc	che/-
=33	=33
4b-	-ri-
8a}	-e,}
8r	.
{4cc	{Aux
=34	=34
8cc	blonds
8ee-	che-
4dd	-veux
8dd	par-
8a	-fu-
=35	=35
[4b-	-me/s,
8b-]}	|}
8r	.
4r	.
=36	=36
{4dd	{Comme
4.dd	une
8een	e/-
=37	=37
4dd	-toi-
4cc#}	-le.}
4r	.
=38	=38
{4a	{Sous
4.ee	ton
8gg	long
=39	=39
4gg	voi-
8ff}	-le,}
8r	.
{8a	{Brille
8bn	a\
=40	=40
8ccn	nos
8dd	re-
4eeS	-gards
8ff	|
8bn	char-
=41	=41
[4cc	-me/s!
8cc]}	|}
8r	.
4r	.
=42	=42
{2cc	{Jus-
8a	qu'au
8f	pied
=43	=43
4a	me^-
4g}	-me}
4r	.
=44	=44
{4ee-	{Du
4.cc	roi
8a	su-
=45	=45
4cc	-pre^-
8b-	-me
8r	.
8dd	Por-
8ff	-te
=46	=46
4.a	notre
8a	hum-
8bn	-ble
8e	fer-
=47	=47
[2cc	-veur!
8cc]}	|}
8r	.
=48	=48
{2cc	{Que
8gg	ta
8ff	main
=49	=49
8ee	blan-
8dd	|
8cc	-che
8b-	Sur
8a	nous
8g	e/-
=50	=50
8f	-pan-
8g	-che
8a	Le
8dd	bien
[4cc	fait
=51	=51
8cc]	|
8d	d'un
4.b-	Dieu
8e	sau-
=52	=52
[4f	-veur!
8f]}	|}
8r	.
4r	.
==	==
*-	*-
